X:1
T:Le Carnaval des animaux
T:Le Carnaval des animaux [a capella]
T:II. Poules et coqs
T:Camille Saint-Säens
T:Arr: G. Fernández
C:Camille Saint-Säens
Z:Arr: G. Fernández
%%score 1 2 3 4
L:1/8
Q:1/2=108
M:4/4
K:C
V:1 treble nm="Soprano" snm="S."
V:2 treble nm="Alto" snm="A."
V:3 treble-8 nm="Tenor" snm="T."
V:4 bass nm="Bajo" snm="B."
V:1
"^Allegro moderato"!f! z2 .C.C .C.C.C.C |{/C} !>!G2 .C.C .C.C.C.C |{/C} !>!G2 .C.C{/C} !>!G2 .C.C | %3
w: Qui- ri- qui- ri- qui- ri-|qui qui- ri- qui- ri- qui- ri-|qui qui- ri- qui qui- ri-|
{/C} !>!G2 z2 z4 | z8 | z4!f! .^F2 z{/B} .c |{/B} .c z .^F z !>!_B4- | (B3 A/G/ ^F) z z2 |"^1" z8 | %9
w: qui||co co|co co- qui|_ qui- ri- qui||
 z8 | z4!f! ._B2 z{/e} .f |{/e} .f z ._B z !>!e4- | ((e3 d/^c/ _A)) z z2 | z8 | z8 | z8 |"^2" z8 | %17
w: |co co|co co qui|_ qui- ri- qui|||||
 z8 | z4!f! .F2 z .c | .c z .F z (!>!B4 |"^Animato" (E6) D2) | z8 | z8 | z8 | z8 |"^3" z8 | z8 | %27
w: |co co|co co co-|co- co|||||||
 z8 | z8 | z8 | z8 | z8 | z8 | z8 |!ff! [dg]2 z2 !fermata!z4 |] %35
w: ||||||||
V:2
 z8 |!f! .C.C.C.C .C.C{/C} !>!G2 | .C.C.C.C .C.C{/C} !>!G2 | .C.C{/C} !>!G2 .C.C.C.C | %4
w: |Qui- ri- qui- ri- qui- ri- qui|qui- ri- qui- ri- qui- ri- qui|qui- ri- qui qui- ri- qui- ri-|
{/C} !>!G2{/C} !>!G2{/C} !>!G2{/C} !>!G2 |{/C} !>!G2 z2 z4 | z8 | z8 | z2!f! .D.D .D.D.D.D | %9
w: qui qui qui qui|qui|||qui- ri- qui- ri- qui- ri-|
{/D} !>!_A2 .D.D .D.D.D.D |{D} !>!_A2 .D.D{D} !>!A2 .D.D |{D} !>!_A2 z2 z4 | z8 | z8 | z8 | z8 | %16
w: qui qui- ri- qui- ri- qui- ri-|qui qui- ri- qui qui- ri-|qui|||||
!p!"^en trainant"!<(! (D4 _E4!<)! | =E4!f! !wedge!F)!wedge!F!wedge!F!wedge!F | %18
w: u- u-|u pi- pi- pi- pi-|
 !wedge!F!wedge!F!wedge!F z z !wedge!F!wedge!F z | z !wedge!F!wedge!F!wedge!F !wedge!F z z2 | %20
w: pi- pi- pi pi- pi|pi- pi- pi- pi|
 z2!ff! !wedge!F!wedge!F !wedge!F!wedge!F!wedge!F!wedge!F | %21
w: qui- ri- qui- ri- qui- ri-|
{/F} (!^!_c2 !wedge!F)!wedge!F !wedge!F!wedge!F!wedge!F!wedge!F | %22
w: qui qui- ri- qui- ri- qui- ri-|
{/F} (!^!_c2 !wedge!F)!wedge!F{/F} (!^!_c2 !wedge!F)!wedge!F | %23
w: qui qui- ri- qui qui- ri-|
{/F} (!^!_B2 !wedge!F)!wedge!F !wedge!F!wedge!F!wedge!F!wedge!F | %24
w: qui qui- ri- qui- ri- qui- ri-|
{/F} (!^!=c2 !wedge!F)!wedge!F !wedge!F!wedge!F!wedge!F!wedge!F | %25
w: qui qui- ri- qui- ri- qui- ri-|
{/F} (!^!_d2 !wedge!F)!wedge!F !wedge!F!wedge!F!wedge!F!wedge!F | %26
w: qui qui- ri- qui- ri- qui- ri-|
{/F} (!^!_d2 !wedge!F)!wedge!F{/F} (!^!d2 !wedge!F)!wedge!F | %27
w: qui qui- ri- qui qui- ri-|
{/F} (!^!=d2 !wedge!F)!wedge!F !wedge!F!wedge!F!wedge!F!wedge!F | %28
w: qui qui- ri- qui- ri- qui- ri-|
 !wedge!F!wedge!F!wedge!F!wedge!F !wedge!F!wedge!F!wedge!F!wedge!F | %29
w: qui- ri- qui- ri- qui- ri- qui- ri-|
{/F} (!^!d2 !wedge!F)!wedge!F{/F} (!^!d2 !wedge!F)!wedge!F | %30
w: qui qui- ri- qui qui- ri-|
{/F} (!^!d2 !wedge!F)!wedge!F !wedge!F!wedge!F!wedge!F!wedge!F | %31
w: qui qui- ri- qui- ri- qui- ri-|
{/F} (!^!d2 !wedge!F)!wedge!F !wedge!F!wedge!F!wedge!F!wedge!F | %32
w: qui qui- ri- qui- ri- qui- ri-|
 !wedge!F!wedge!F!wedge!F!wedge!F !wedge!F!wedge!F!wedge!F!wedge!F | %33
w: qui- ri- qui- ri- qui- ri- qui- ri-|
{/F} (!^!d2 !wedge!F)!wedge!F !wedge!F!wedge!F!wedge!F!wedge!F |!ff! [GB]2 z2 !fermata!z4 |] %35
w: qui qui- ri- qui- ri- qui- ri-|qui|
V:3
 z8 | z8 | z8 |!f! .A.A.A.A .A.A{/A} !>!_e2 | .A.A.A.A{/A} !>!_e2 .A.A | %5
w: |||Qui- ri- qui- ri- qui- ri- qui|qui- ri- qui- ri- qui qui- ri-|
.A.A{/A} !>!_e2 .A.A{/A} !>!e2 | z8 | z8 | z8 |!f! ._B.B.B.B .B.B{/B} !>!f2 | ._B.B{/B} !>!f2 z4 | %11
w: qui- ri- qui qui- ri- qui||||qui- ri- qui- ri- qui- ri- qui|qui- ri- qui|
 z8 | z8 | z8 | z4"^en trainant"!p!!<(! (F4 | ^F4 G4 | %16
w: |||u-|u- u|
!f! !wedge!_A)!<)!!wedge!A!wedge!A!wedge!A !wedge!A!wedge!A!wedge!A z | %17
w: pi- pi- pi- pi- pi- pi- pi|
 z !wedge!_A!wedge!A z z2 !wedge!A z | !wedge!_A z !wedge!A z !wedge!A z !wedge!A z | %19
w: pi- pi pi|pi pi pi pi|
 !wedge!_A z !wedge!A z z4 | z8 | z8 | z8 | z8 | z8 | z8 | z8 | z8 | z8 | z8 | z8 | z8 | z8 | z8 | %34
w: pi pi|||||||||||||||
!ff! [DG]2 z2 !fermata!z4 |] %35
w: |
V:4
 z8 | z8 | z8 | z8 | z8 | z8 | z8 | z8 | z8 | z8 | z8 | z8 | z8 |"^en trainant"!p!!<(! (B,,4 C,4 | %14
w: |||||||||||||u- u-|
 ^C,4!f! !wedge!D,)!<)!!wedge!D,!wedge!D,!wedge!D, | %15
w: u pi- pi- pi- pi-|
 !wedge!D,!wedge!D,!wedge!D, z z !wedge!D,!wedge!D, z | z2 !wedge!D, z !wedge!D, z !wedge!D, z | %17
w: pi- pi- pi pi- pi|pi pi pi|
 !wedge!D, z z2 !wedge!D, z z2 | (3z2 !>!D,2 !>!D,2 (3!>!D,2 !>!D,2 !>!D,2 | !>!!wedge!D,2 z2 z4 | %20
w: pi pi|pi- pi- pi- pi- pi|pi|
 z8 | z8 | z8 | z8 | z8 | z8 | z8 | z8 | z8 | z8 | z8 | z8 | z8 | z8 | %34
w: ||||||||||||||
!ff! [G,,B,,]2 z2 !fermata!z4 |] %35
w: |

